X: 16142
T: Green Grow The Rushes
R: barndance
M: 4/4
K: Gmajor
|:G2 GA|BG G2|AB cd|eA AB|
cd ed|Bc dB|Ac BA|1 GE EF:|2 GE E2||
|:g2 gf|ed d2|ea ab|ag ef|
g2 gf|ed dB|Ac BA|1 GE E2:|2 GE EF||

